dotfiles/ags/assets/logs-logo-symbolic.svg

<svg xmlns="http://www.w3.org/2000/svg" width="200" height="200" fill="currentColor" stroke="currentColor" stroke-width="0" style="--darkreader-inline-fill:currentColor;--darkreader-inline-stroke:currentColor" viewBox="0 0 512 512"><path stroke="none" d="M18.53 19.688V61.03c72.043 13.54 136.044 34.786 205.126 63.907v.032c12.827 4.56 21.984 12.106 26.844 21.186 4.94 9.23 5.268 19.71 1.75 28.563-6.227 15.67-24.807 25.573-45.78 20.374-10.345 19.927-23.93 39.623-42.407 58.937a298.547 298.547 0 0 0 34.187 18.532H307.5c20.216-54.396 32.977-109.693 38.344-160.937-104.518-15.22-203.62-46.673-297.813-91.938h-29.5zm317.095 229a713.748 713.748 0 0 1-8.22 24.093h28.94v18.69h-161.69v-.22h-.593l-1.843-.844c-16.61-7.513-32.607-16.53-48.126-27.062l-3.156-2.125c-10.943 4.44-19.705 9.41-25.563 14.342-7.023 5.915-9.563 11.066-9.563 15.594 0 4.53 2.54 9.71 9.563 15.625 7.023 5.916 18.168 11.9 32.313 16.94 28.29 10.075 68.477 16.56 112.906 16.56 44.428 0 84.648-6.485 112.937-16.56 14.146-5.04 25.29-11.024 32.314-16.94 7.023-5.913 9.562-11.095 9.562-15.624 0-4.527-2.54-9.68-9.562-15.594-7.024-5.914-18.168-11.9-32.313-16.937-10.984-3.913-23.774-7.277-37.905-9.938zm-234.03 70.843c-5.044 82.403-40.128 102.984-71.44 125.095 20.57 4.536 43.68 8.43 66.94 7.563 25.204-9.846 51.443-36.288 70.405-57.47-8.154 19.774-19.6 39.024-34.563 58.376L106.97 492.53c44.538-7.387 86.41-17.235 129.25-46.374-7.942-20.833-13.978-41.123-18.22-61.187 16.816 26.81 35.478 52.765 57.125 76.655.03.033.064.06.094.094l31.967 30.655c25.176-31.428 43.748-65.536 58.563-99.875-.153 15.875-1.45 32.3-5 49.594 43.973 9.924 87.933 3.585 131.906 2.53-44.83-18.237-70.754-54.62-75.344-123.093-9.53 7.867-22.24 14.347-37.5 19.783-31.12 11.084-72.99 17.656-119.218 17.656-46.227 0-88.068-6.573-119.188-17.658-15.56-5.542-28.473-12.174-38.062-20.25-.6-.504-1.175-1.01-1.75-1.53z"/></svg>

<?xml version="1.0" encoding="UTF-8" standalone="no"?>
<svg width="317.5mm" height="15.0812mm"
 xmlns="http://www.w3.org/2000/svg" xmlns:xlink="http://www.w3.org/1999/xlink"  version="1.2" baseProfile="tiny">
<desc>Created by HiQPdf</desc>
<defs>
</defs>
<g fill="none" stroke="black" stroke-width="1" fill-rule="evenodd" stroke-linecap="square" stroke-linejoin="bevel" >

<g fill="#000000" fill-opacity="1" stroke="#000000" stroke-opacity="1" stroke-width="1" stroke-linecap="square" stroke-linejoin="miter" stroke-miterlimit="2" transform="matrix(1,0,0,1,0,0)"
>
</g>

<g fill="#000000" fill-opacity="1" stroke="#000000" stroke-opacity="1" stroke-width="1" stroke-linecap="square" stroke-linejoin="miter" stroke-miterlimit="2" transform="matrix(1,0,0,1,0,0)"
>
</g>

<g fill="#000000" fill-opacity="1" stroke="#000000" stroke-opacity="1" stroke-width="1" stroke-linecap="square" stroke-linejoin="miter" stroke-miterlimit="2" transform="matrix(1,0,0,1,0,0)"
>
</g>

<g fill="#000000" fill-opacity="1" stroke="#000000" stroke-opacity="1" stroke-width="1" stroke-linecap="square" stroke-linejoin="miter" stroke-miterlimit="2" transform="matrix(1,0,0,1,0,0)"
>
</g>

<g fill="#000000" fill-opacity="1" stroke="#000000" stroke-opacity="1" stroke-width="1" stroke-linecap="square" stroke-linejoin="miter" stroke-miterlimit="2" transform="matrix(0.03125,0,0,0.03125,8,28)"
>
</g>

<g fill="#000000" fill-opacity="1" stroke="none" transform="matrix(0.03125,0,0,0.03125,8,28)"
>
<path vector-effect="none" fill-rule="nonzero" d="M18.53,19.688 L18.53,61.03 C90.573,74.57 154.574,95.816 223.656,124.937 L223.656,124.969 C236.483,129.529 245.64,137.075 250.5,146.155 C255.44,155.385 255.768,165.865 252.25,174.718 C246.023,190.388 227.443,200.291 206.47,195.092 C196.125,215.019 182.54,234.715 164.063,254.029 C175.203,261.034 186.576,267.189 198.25,272.561 L307.5,272.561 C327.716,218.165 340.477,162.868 345.844,111.624 C241.326,96.404 142.224,64.951 48.031,19.686 L18.531,19.686 L18.53,19.688 M335.625,248.688 C333.045,256.718 330.299,264.768 327.405,272.781 L356.345,272.781 L356.345,291.471 L194.655,291.471 L194.655,291.251 L194.062,291.251 L192.219,290.407 C175.609,282.894 159.612,273.877 144.093,263.345 L140.937,261.22 C129.994,265.66 121.232,270.63 115.374,275.562 C108.351,281.477 105.811,286.628 105.811,291.156 C105.811,295.686 108.351,300.866 115.374,306.781 C122.397,312.697 133.542,318.681 147.687,323.721 C175.977,333.796 216.164,340.281 260.593,340.281 C305.021,340.281 345.241,333.796 373.53,323.721 C387.676,318.681 398.82,312.697 405.844,306.781 C412.867,300.868 415.406,295.686 415.406,291.157 C415.406,286.63 412.866,281.477 405.844,275.563 C398.82,269.649 387.676,263.663 373.531,258.626 C362.547,254.713 349.757,251.349 335.626,248.688 L335.625,248.688 M101.595,319.531 C96.551,401.934 61.467,422.515 30.155,444.626 C50.725,449.162 73.835,453.056 97.095,452.189 C122.299,442.343 148.538,415.901 167.5,394.719 C159.346,414.493 147.9,433.743 132.937,453.095 L106.97,492.53 C151.508,485.143 193.38,475.295 236.22,446.156 C228.278,425.323 222.242,405.033 218,384.969 C234.816,411.779 253.478,437.734 275.125,461.624 C275.155,461.657 275.189,461.684 275.219,461.718 L307.186,492.373 C332.362,460.945 350.934,426.837 365.749,392.498 C365.596,408.373 364.299,424.798 360.749,442.092 C404.722,452.016 448.682,445.677 492.655,444.622 C447.825,426.385 421.901,390.002 417.311,321.529 C407.781,329.396 395.071,335.876 379.811,341.312 C348.691,352.396 306.821,358.968 260.593,358.968 C214.366,358.968 172.525,352.395 141.405,341.31 C125.845,335.768 112.932,329.136 103.343,321.06 C102.743,320.556 102.168,320.05 101.593,319.53 L101.595,319.531"/>
</g>

<g fill="#000000" fill-opacity="1" stroke="#000000" stroke-opacity="1" stroke-width="1" stroke-linecap="square" stroke-linejoin="miter" stroke-miterlimit="2" transform="matrix(0.03125,0,0,0.03125,8,28)"
>
</g>

<g fill="#000000" fill-opacity="1" stroke="#000000" stroke-opacity="1" stroke-width="1" stroke-linecap="square" stroke-linejoin="miter" stroke-miterlimit="2" transform="matrix(0.03125,0,0,0.03125,8,28)"
>
</g>

<g fill="#000000" fill-opacity="1" stroke="#000000" stroke-opacity="1" stroke-width="1" stroke-linecap="square" stroke-linejoin="miter" stroke-miterlimit="2" transform="matrix(1,0,0,1,0,0)"
>
</g>

<g fill="#000000" fill-opacity="1" stroke="#000000" stroke-opacity="1" stroke-width="1" stroke-linecap="square" stroke-linejoin="miter" stroke-miterlimit="2" transform="matrix(1,0,0,1,0,0)"
>
</g>

<g fill="#000000" fill-opacity="1" stroke="#000000" stroke-opacity="1" stroke-width="1" stroke-linecap="square" stroke-linejoin="miter" stroke-miterlimit="2" transform="matrix(1,0,0,1,0,0)"
>
</g>

<g fill="#000000" fill-opacity="1" stroke="#000000" stroke-opacity="1" stroke-width="1" stroke-linecap="square" stroke-linejoin="miter" stroke-miterlimit="2" transform="matrix(1,0,0,1,0,0)"
>
</g>

<g fill="#000000" fill-opacity="1" stroke="#000000" stroke-opacity="1" stroke-width="1" stroke-linecap="square" stroke-linejoin="miter" stroke-miterlimit="2" transform="matrix(0.03125,0,0,0.03125,8,28)"
>
</g>

<g fill="#000000" fill-opacity="1" stroke="#000000" stroke-opacity="1" stroke-width="1" stroke-linecap="square" stroke-linejoin="miter" stroke-miterlimit="2" transform="matrix(1,0,0,1,0,0)"
>
</g>

<g fill="#000000" fill-opacity="1" stroke="#000000" stroke-opacity="1" stroke-width="1" stroke-linecap="square" stroke-linejoin="miter" stroke-miterlimit="2" transform="matrix(1,0,0,1,0,0)"
>
</g>

<g fill="#000000" fill-opacity="1" stroke="#000000" stroke-opacity="1" stroke-width="1" stroke-linecap="square" stroke-linejoin="miter" stroke-miterlimit="2" transform="matrix(1,0,0,1,0,0)"
>
</g>

<g fill="#000000" fill-opacity="1" stroke="#000000" stroke-opacity="1" stroke-width="1" stroke-linecap="square" stroke-linejoin="bevel" transform="matrix(1,0,0,1,0,0)"
>
<text fill="#000000" fill-opacity="1" stroke="none" xml:space="preserve" x="24" y="44" font-family="Times New Roman" font-size="16" font-weight="400" font-style="normal" 
 > </text>
</g>

<g fill="#000000" fill-opacity="1" stroke="#000000" stroke-opacity="1" stroke-width="1" stroke-linecap="square" stroke-linejoin="miter" stroke-miterlimit="2" transform="matrix(1,0,0,1,0,0)"
>
</g>

<g fill="#000000" fill-opacity="1" stroke="#000000" stroke-opacity="1" stroke-width="1" stroke-linecap="square" stroke-linejoin="miter" stroke-miterlimit="2" transform="matrix(1,0,0,1,0,0)"
>
</g>

<g fill="#000000" fill-opacity="1" stroke="#000000" stroke-opacity="1" stroke-width="1" stroke-linecap="square" stroke-linejoin="miter" stroke-miterlimit="2" transform="matrix(1,0,0,1,0,0)"
>
</g>
</g>
</svg>
